X:0588
T:Nos Calen
C:Welch
N:Nos Galen
N:Deck the Halls with Boughs of Holly
M:C
L:1/8
Q:1/4=100 "Moderate"
I: :: ||
Z:Jack Campin * www.campin.me.uk * 2009
K:G
d3 c B2A2|G2A2 B2G2|ABcd c2 BA|G2F2 G4::
A2B2 c2BA|B2c2 d2B2|cde2 de=f2|f2e2 d4 |
d3 c B2A2|G2A2 B2G2|ABcd c2 BA|G2F2 G4|]

